Catalina-dark/actions/22/format-text-subscript.svg

<svg xmlns="http://www.w3.org/2000/svg" viewBox="0 0 22 22">
  <defs id="defs3051">
    <style type="text/css" id="current-color-scheme">
      .ColorScheme-Text {
        color:#f2f2f2;
      }
      </style>
  </defs>
 <path 
    style="fill:currentColor;fill-opacity:1;stroke:none" 
    d="M 8.2167969 3 L 3 17 L 4.6875 17 L 6.3554688 12.570312 L 11.917969 12.570312 L 12.066406 13 L 13.732422 13 L 10.210938 3 L 8.2167969 3 z M 9.2324219 4.6113281 L 11.361328 11.285156 L 6.8730469 11.285156 L 9.2324219 4.6113281 z M 14 13 L 14 15 L 14 16 L 14 18 L 14 19 L 15 19 L 17 19 C 18.108 19 19 18.108 19 17 C 19 16.18906 18.518735 15.498104 17.828125 15.183594 C 17.934075 14.977744 18 14.74831 18 14.5 C 18 13.669 17.331 13 16.5 13 L 15 13 L 14 13 z M 15 14 L 16.5 14 C 16.777 14 17 14.223 17 14.5 C 17 14.777 16.777 15 16.5 15 L 15 15 L 15 14 z M 15 16 L 16.5 16 L 17 16 C 17.554 16 18 16.446 18 17 C 18 17.554 17.554 18 17 18 L 15 18 L 15 16 z "
    class="ColorScheme-Text"
    />  
</svg>

<svg viewBox="0 0 22 22" xmlns="http://www.w3.org/2000/svg">
<defs>
<style id="current-color-scheme" type="text/css">.ColorScheme-Text {
        color:#f2f2f2;
      }</style>
</defs>
<path class="ColorScheme-Text" d="m8.2168 3-5.2168 14h1.6875l1.668-4.4297h5.5625l0.14844 0.42969h1.666l-3.5215-10h-1.9941zm1.0156 1.6113 2.1289 6.6738h-4.4883l2.3594-6.6738zm4.7676 8.3887v6h3c1.108 0 2-0.892 2-2 0-0.81094-0.48126-1.5019-1.1719-1.8164 0.10595-0.20585 0.17188-0.43528 0.17188-0.68359 0-0.831-0.669-1.5-1.5-1.5h-2.5zm1 1h1.5c0.277 0 0.5 0.223 0.5 0.5s-0.223 0.5-0.5 0.5h-1.5v-1zm0 2h2c0.554 0 1 0.446 1 1s-0.446 1-1 1h-2v-2z" fill="currentColor"/>
</svg>
